X:1
T:Trevithick's Tune
M:6/8
L:1/8
Q:1/4=175
K:E
BxB Bcd | fxf fxx | efe exc | exx cxx |
BxB Bcd | fxf fxx | efe exc | Bxx axx |
axa gfe | fxf exx | axa gfe | fgf exx |
BxB Bcd | fxf fxx | efe exc | Bxx axa |
eee ede | fxx bxb | fff fef | gxx bxg |
gfg axg | fef gxe | axx gxx | fed exx ]
